packages/assets/static/images/icons/pin.svg

<svg width="24" height="24" viewBox="0 0 24 24" xmlns="http://www.w3.org/2000/svg">
<path d="M22.8266 7.36317L17.1369 1.67442C16.9628 1.50009 16.756 1.3618 16.5284 1.26744C16.3007 1.17308 16.0567 1.12451 15.8103 1.12451C15.5639 1.12451 15.32 1.17308 15.0923 1.26744C14.8647 1.3618 14.6579 1.50009 14.4838 1.67442L9.61253 6.56255C8.44722 6.25036 6.17378 6.0263 3.82441 7.92192C3.61925 8.08699 3.45115 8.29341 3.33107 8.52775C3.21099 8.7621 3.14162 9.01911 3.12747 9.28205C3.11331 9.54498 3.15471 9.80795 3.24894 10.0538C3.34318 10.2997 3.48815 10.523 3.67441 10.7091L7.93628 14.9719L4.20503 18.7032C3.99369 18.9145 3.87496 19.2012 3.87496 19.5C3.87496 19.7989 3.99369 20.0856 4.20503 20.2969C4.41638 20.5083 4.70302 20.627 5.00191 20.627C5.30079 20.627 5.58744 20.5083 5.79878 20.2969L9.53003 16.5647L13.7928 20.8266C14.1441 21.1775 14.6201 21.3747 15.1166 21.375C15.1597 21.375 15.2038 21.375 15.2478 21.3704C15.5154 21.351 15.7758 21.2745 16.0113 21.1459C16.2467 21.0173 16.4519 20.8397 16.6128 20.625C17.0525 20.041 17.6441 19.1129 17.9666 18C18.2891 16.8872 18.29 15.8551 17.9816 14.8688L22.8285 10.006C23.1772 9.65447 23.3727 9.17931 23.3723 8.68419C23.372 8.18907 23.1758 7.71419 22.8266 7.36317ZM15.8647 13.8122C15.6983 13.9793 15.5885 14.1945 15.551 14.4273C15.5135 14.6601 15.5501 14.8988 15.6557 15.1097C15.9772 15.7529 16.3025 17.0785 15.0669 18.9207L5.57003 9.42474C7.54722 8.05692 9.27597 8.80224 9.41378 8.86224C9.62378 8.97127 9.86347 9.00928 10.0969 8.97057C10.3303 8.93186 10.5449 8.81852 10.7085 8.64755L15.8113 3.52786L20.9675 8.68411L15.8647 13.8122Z"/>
</svg>

<svg viewBox="0 0 24 24" xmlns="http://www.w3.org/2000/svg" aria-hidden="true" fill="currentColor" height="24px" width="24px"><path d="m22.827 7.363-5.69-5.689a1.875 1.875 0 0 0-2.653 0L9.613 6.563c-1.166-.313-3.44-.537-5.789 1.359a1.875 1.875 0 0 0-.15 2.787l4.262 4.263-3.731 3.731a1.127 1.127 0 1 0 1.594 1.594l3.731-3.732 4.263 4.262c.351.35.827.548 1.324.548q.065.001.13-.005a1.88 1.88 0 0 0 1.366-.745c.44-.584 1.031-1.512 1.354-2.625.322-1.113.323-2.145.015-3.131l4.846-4.863a1.875 1.875 0 0 0-.001-2.643m-6.962 6.45a1.13 1.13 0 0 0-.21 1.297c.322.643.647 1.968-.588 3.81L5.57 9.426c1.977-1.368 3.706-.623 3.844-.563a1.094 1.094 0 0 0 1.295-.214l5.102-5.12 5.157 5.156z"/></svg>
